ix/warning-2_broken.svg

<svg viewBox="0 0 24 24" fill="none" xmlns="http://www.w3.org/2000/svg" height="1em" width="1em">
  <path d="M12 7.75V13" stroke="#292D32" stroke-width="1.5" stroke-linecap="round" stroke-linejoin="round"/>
  <path d="M2.91992 8.58003C2.91992 7.46003 3.51993 6.41999 4.48993 5.84999L10.4299 2.42C11.3999 1.86 12.6 1.86 13.58 2.42L19.52 5.84999C20.49 6.40999 21.09 7.45003 21.09 8.58003V15.42C21.09 16.54 20.49 17.58 19.52 18.15L13.58 21.58C12.61 22.14 11.4099 22.14 10.4299 21.58L4.48993 18.15C3.51993 17.59 2.91992 16.55 2.91992 15.42V12.66" stroke="#292D32" stroke-width="1.5" stroke-linecap="round" stroke-linejoin="round"/>
  <path d="M12 16.2V16.2999" stroke="#292D32" stroke-width="2" stroke-linecap="round" stroke-linejoin="round"/>
</svg>

<svg viewBox="0 0 24 24" fill="none" xmlns="http://www.w3.org/2000/svg" height="1em" width="1em">
  <path d="M12 7.75V13M2.92 8.58c0-1.12.6-2.16 1.57-2.73l5.94-3.43c.97-.56 2.17-.56 3.15 0l5.94 3.43c.97.56 1.57 1.6 1.57 2.73v6.84c0 1.12-.6 2.16-1.57 2.73l-5.94 3.43c-.97.56-2.17.56-3.15 0l-5.94-3.43a3.15 3.15 0 0 1-1.57-2.73v-2.76" stroke="#292D32" stroke-width="1.5" stroke-linecap="round" stroke-linejoin="round"/>
  <path d="M12 16.2v.1" stroke="#292D32" stroke-width="2" stroke-linecap="round" stroke-linejoin="round"/>
</svg>
